src/images/svg/symbols/aud-basket.svg

<svg width="32" height="32" viewBox="0 0 32 32" fill="none" xmlns="http://www.w3.org/2000/svg">
<path fill-rule="evenodd" clip-rule="evenodd" d="M26.6894 17.2425C26.8471 16.6114 26.3698 16 25.7192 16H6.28077C5.6302 16 5.15284 16.6114 5.31062 17.2425L7.81062 27.2425C7.92192 27.6877 8.3219 28 8.78077 28H23.2192C23.6781 28 24.0781 27.6877 24.1894 27.2425L26.6894 17.2425ZM11.0001 19C10.4478 19 10.0001 19.4477 10.0001 20V24C10.0001 24.5523 10.4478 25 11.0001 25C11.5524 25 12.0001 24.5523 12.0001 24V20C12.0001 19.4477 11.5524 19 11.0001 19ZM15.0001 20C15.0001 19.4477 15.4478 19 16.0001 19C16.5524 19 17.0001 19.4477 17.0001 20V24C17.0001 24.5523 16.5524 25 16.0001 25C15.4478 25 15.0001 24.5523 15.0001 24V20ZM21.0001 19C20.4478 19 20.0001 19.4477 20.0001 20V24C20.0001 24.5523 20.4478 25 21.0001 25C21.5524 25 22.0001 24.5523 22.0001 24V20C22.0001 19.4477 21.5524 19 21.0001 19Z" fill="#D2D3DA"/>
<path fill-rule="evenodd" clip-rule="evenodd" d="M15.914 7.39517L13.1852 12H18.8148L16.086 7.39517C16.0473 7.32981 15.9527 7.32981 15.914 7.39517ZM21.8 12L17.5145 4.85749C17.1953 4.32551 16.6204 4 16 4C15.3796 4 14.8047 4.32551 14.4855 4.85749L10.2 12H5C4.44772 12 4 12.4477 4 13C4 13.5523 4.44772 14 5 14H9H12H20H23H27C27.5523 14 28 13.5523 28 13C28 12.4477 27.5523 12 27 12H21.8Z" fill="#D2D3DA"/>
<path d="M30.75 0H18.25C17.5596 0 17 0.559644 17 1.25V8.75C17 9.44036 17.5596 10 18.25 10H30.75C31.4404 10 32 9.44036 32 8.75V1.25C32 0.559644 31.4404 0 30.75 0Z" fill="#0D47A1"/>
<path d="M17.2586 4.99179H17.7079L20.1035 3.39732V4.99179H21.3966V3.39732L23.7922 4.99179H24.2414C24.3842 4.99179 24.5 4.87414 24.5 4.72905V4.52065L22.4447 3.15271H24.5V1.83908H22.4447L24.5 0.471131V0.262738C24.5 0.117619 24.3842 0 24.2414 0H23.7921L21.3965 1.59446V0H20.1034V1.59446L17.7864 0.0523214C17.5159 0.138631 17.2897 0.32622 17.1504 0.57119L19.0554 1.83908H17V3.15271H19.0553L17 4.52065V4.72905C17 4.87414 17.1158 4.99179 17.2586 4.99179Z" fill="white"/>
<path d="M20.8281 6.42455L21.0233 7.07922L21.6489 6.8261C21.7022 6.80449 21.7508 6.86634 21.7182 6.91437L21.336 7.47759L21.9209 7.8166C21.9707 7.84553 21.9534 7.92262 21.8961 7.92669L21.2244 7.97434L21.3281 8.65021C21.337 8.70788 21.2668 8.7422 21.228 8.69919L20.7725 8.19538L20.317 8.69919C20.2781 8.74217 20.208 8.70785 20.2168 8.65021L20.3206 7.97434L19.6488 7.92669C19.5915 7.92262 19.5742 7.84553 19.6241 7.8166L20.2089 7.47759L19.8268 6.91437C19.7942 6.86634 19.8427 6.80449 19.8961 6.8261L20.5217 7.07922L20.7169 6.42455C20.7336 6.36869 20.8114 6.36869 20.8281 6.42455ZM28.5217 7.37708L28.617 7.69687L28.9226 7.57321C28.9486 7.56268 28.9724 7.59285 28.9564 7.61634L28.7698 7.89149L29.0555 8.05711C29.0798 8.07122 29.0714 8.1089 29.0434 8.11086L28.7152 8.13413L28.7659 8.46428C28.7702 8.49247 28.736 8.50922 28.717 8.48821L28.4945 8.24211L28.2719 8.48821C28.253 8.50919 28.2187 8.49244 28.223 8.46428L28.2737 8.13413L27.9456 8.11086C27.9175 8.1089 27.9091 8.07122 27.9335 8.05711L28.2191 7.89149L28.0325 7.61634C28.0165 7.59285 28.0403 7.56268 28.0663 7.57321L28.3719 7.69687L28.4673 7.37708C28.4755 7.34982 28.5136 7.34982 28.5217 7.37708ZM29.2594 4.79901C29.2693 4.76884 29.3114 4.76884 29.3213 4.79901L29.3979 5.03223L29.6398 5.03413C29.6712 5.0344 29.6842 5.07497 29.6589 5.0939L29.4643 5.23994L29.5373 5.47431C29.5467 5.50464 29.5127 5.52973 29.4872 5.51125L29.2904 5.3683L29.0935 5.51125C29.068 5.52976 29.034 5.50467 29.0435 5.47431L29.1165 5.23994L28.9218 5.0939C28.8966 5.075 28.9096 5.0344 28.9409 5.03413L29.1829 5.03223L29.2594 4.79901ZM26.3954 4.22437L26.4908 4.54416L26.7964 4.42053C26.8224 4.41 26.8461 4.44018 26.8302 4.46366L26.6435 4.73881L26.9292 4.90443C26.9536 4.91854 26.9451 4.95622 26.9171 4.95818L26.589 4.98146L26.6397 5.3116C26.644 5.33979 26.6097 5.35654 26.5907 5.33553L26.3682 5.08943L26.1457 5.33553C26.1267 5.35651 26.0925 5.33976 26.0968 5.3116L26.1475 4.98146L25.8194 4.95818C25.7914 4.95619 25.7829 4.91854 25.8073 4.90443L26.0929 4.73881L25.9063 4.46366C25.8903 4.44018 25.9141 4.41 25.9401 4.42053L26.2457 4.54416L26.3411 4.22437C26.3492 4.19708 26.3873 4.19708 26.3954 4.22437ZM30.5333 3.17345L30.6287 3.49324L30.9343 3.36961C30.9603 3.35907 30.984 3.38925 30.9681 3.41273L30.7815 3.68788L31.0671 3.85351C31.0915 3.86762 31.083 3.90529 31.055 3.90726L30.7269 3.93053L30.7776 4.26068C30.7819 4.28887 30.7477 4.30562 30.7287 4.28461L30.5062 4.03851L30.2836 4.28461C30.2647 4.30559 30.2304 4.28884 30.2348 4.26068L30.2854 3.93053L29.9573 3.90726C29.9293 3.90526 29.9208 3.86762 29.9452 3.85351L30.2309 3.68788L30.0442 3.41273C30.0283 3.38925 30.052 3.35907 30.0781 3.36961L30.3837 3.49324L30.479 3.17345C30.4871 3.14619 30.5252 3.14619 30.5333 3.17345ZM28.5217 1.76976L28.617 2.08955L28.9226 1.96592C28.9486 1.95538 28.9724 1.98556 28.9564 2.00904L28.7698 2.28419L29.0555 2.44982C29.0798 2.46393 29.0714 2.5016 29.0434 2.50357L28.7152 2.52684L28.7659 2.85699C28.7702 2.88518 28.736 2.90193 28.717 2.88092L28.4945 2.63482L28.2719 2.88092C28.253 2.9019 28.2187 2.88515 28.223 2.85699L28.2737 2.52684L27.9456 2.50357C27.9175 2.50157 27.9091 2.46393 27.9335 2.44982L28.2191 2.28419L28.0325 2.00904C28.0165 1.98556 28.0403 1.95538 28.0663 1.96592L28.3719 2.08955L28.4673 1.76976C28.4755 1.74244 28.5136 1.74244 28.5217 1.76976Z" fill="white"/>
<path d="M21.1379 0V2.10182H24.5V2.88997H21.1379V4.99179H20.3621V2.88997H17V2.10182H20.3621V0H21.1379ZM20.0964 3.15271L17.3074 4.99179H17.2586C17.1816 4.99179 17.1146 4.95607 17.0681 4.90122L17.0372 4.85676L19.6213 3.15271H20.0964ZM22.074 3.15274L24.4959 4.7497C24.4881 4.84604 24.4316 4.92744 24.3492 4.96628L21.599 3.15274H22.074ZM17.4279 0.245327L19.8448 1.83908H19.3698L17.241 0.435298C17.2958 0.364762 17.3585 0.300982 17.4279 0.245327ZM24.2414 0C24.3173 0 24.3833 0.034819 24.4297 0.0883505L24.4607 0.131756L21.8716 1.83908H21.3966L24.1854 0H24.2414Z" fill="#F44336"/>
<path fill-rule="evenodd" clip-rule="evenodd" d="M30.75 0.625H18.25C17.9048 0.625 17.625 0.904822 17.625 1.25V8.75C17.625 9.09518 17.9048 9.375 18.25 9.375H30.75C31.0952 9.375 31.375 9.09518 31.375 8.75V1.25C31.375 0.904822 31.0952 0.625 30.75 0.625ZM18.25 0C17.5596 0 17 0.559644 17 1.25V8.75C17 9.44036 17.5596 10 18.25 10H30.75C31.4404 10 32 9.44036 32 8.75V1.25C32 0.559644 31.4404 0 30.75 0H18.25Z" fill="black" fill-opacity="0.04"/>
</svg>

<svg width="32" height="32" fill="none" xmlns="http://www.w3.org/2000/svg"><path fill-rule="evenodd" clip-rule="evenodd" d="M26.69 17.242A1 1 0 0 0 25.72 16H6.28a1 1 0 0 0-.97 1.242l2.5 10a1 1 0 0 0 .97.758h14.44a1 1 0 0 0 .97-.758l2.5-10ZM11 19a1 1 0 0 0-1 1v4a1 1 0 1 0 2 0v-4a1 1 0 0 0-1-1Zm4 1a1 1 0 1 1 2 0v4a1 1 0 1 1-2 0v-4Zm6-1a1 1 0 0 0-1 1v4a1 1 0 1 0 2 0v-4a1 1 0 0 0-1-1ZM15.914 7.395 13.185 12h5.63l-2.729-4.605a.1.1 0 0 0-.172 0ZM21.8 12l-4.285-7.143a1.766 1.766 0 0 0-3.03 0L10.2 12H5a1 1 0 1 0 0 2h22a1 1 0 1 0 0-2h-5.2Z" fill="#D2D3DA"/><path d="M30.75 0h-12.5C17.56 0 17 .56 17 1.25v7.5c0 .69.56 1.25 1.25 1.25h12.5c.69 0 1.25-.56 1.25-1.25v-7.5C32 .56 31.44 0 30.75 0Z" fill="#0D47A1"/><path d="M17.259 4.992h.449l2.396-1.595v1.595h1.293V3.397l2.395 1.595h.45a.26.26 0 0 0 .258-.263v-.208l-2.055-1.368H24.5V1.839h-2.055L24.5.471V.263A.26.26 0 0 0 24.241 0h-.449l-2.396 1.594V0h-1.293v1.594L17.786.052a1.13 1.13 0 0 0-.636.52l1.905 1.267H17v1.314h2.055L17 4.52v.208a.26.26 0 0 0 .259.263ZM20.828 6.425l.195.654.626-.253c.053-.022.102.04.07.088l-.383.564.585.339c.05.029.032.106-.025.11l-.672.047.104.676c.009.058-.061.092-.1.05l-.456-.505-.455.504c-.039.043-.109.009-.1-.049l.104-.676-.672-.047c-.058-.004-.075-.081-.025-.11l.585-.34-.382-.563c-.033-.048.016-.11.07-.088l.625.253.195-.654a.058.058 0 0 1 .111 0Zm7.694.952.095.32.306-.124c.026-.01.05.02.033.043l-.186.275.285.166c.025.014.016.052-.012.054l-.328.023.05.33c.005.028-.029.045-.048.024l-.223-.246-.222.246c-.019.021-.053.004-.049-.024l.05-.33-.327-.023c-.029-.002-.037-.04-.013-.054l.286-.166-.187-.275c-.015-.023.008-.053.034-.043l.306.124.095-.32a.028.028 0 0 1 .055 0Zm.737-2.578c.01-.03.052-.03.062 0l.077.233.242.002c.031 0 .044.041.019.06l-.195.146.073.234c.01.03-.024.056-.05.037l-.197-.143-.197.143c-.025.019-.059-.006-.05-.037l.073-.234-.194-.146c-.025-.019-.012-.06.019-.06l.242-.002.076-.233Zm-2.864-.575.096.32.305-.123c.026-.011.05.02.034.043l-.186.275.285.165c.025.015.016.052-.012.054l-.328.023.05.33c.005.029-.03.046-.048.025l-.223-.247-.222.247c-.02.02-.053.004-.05-.024l.052-.33-.329-.024c-.028-.002-.036-.04-.012-.054l.286-.165-.187-.275c-.016-.024.008-.054.034-.043l.306.123.095-.32a.028.028 0 0 1 .054 0Zm4.138-1.05.096.32.305-.124c.026-.01.05.02.034.043l-.186.275.285.166c.024.014.016.051-.012.053l-.328.024.05.33c.005.028-.03.045-.048.024l-.223-.246-.222.246c-.02.02-.054.004-.05-.024l.051-.33-.328-.024c-.028-.002-.036-.04-.012-.053l.286-.166-.187-.275c-.016-.024.008-.054.034-.043l.306.123.095-.32a.028.028 0 0 1 .054 0ZM28.522 1.77l.095.32.306-.124c.026-.01.05.02.033.043l-.186.275.285.166c.025.014.016.052-.012.054l-.328.023.05.33c.005.028-.029.045-.048.024l-.223-.246-.222.246c-.019.02-.053.004-.049-.024l.05-.33-.327-.023c-.029-.002-.037-.04-.013-.054l.286-.166-.187-.275c-.015-.023.008-.054.034-.043l.306.124.095-.32a.028.028 0 0 1 .055 0Z" fill="#fff"/><path d="M21.138 0v2.102H24.5v.788h-3.362v2.102h-.776V2.89H17v-.788h3.362V0h.776Zm-1.042 3.153-2.789 1.839h-.048a.248.248 0 0 1-.19-.09l-.032-.045 2.584-1.704h.475Zm1.978 0 2.422 1.597a.26.26 0 0 1-.147.216L21.6 3.153h.475ZM17.428.245l2.417 1.594h-.475L17.24.435a1.14 1.14 0 0 1 .187-.19ZM24.24 0c.076 0 .142.035.189.088l.03.044-2.588 1.707h-.475L24.185 0h.056Z" fill="#F44336"/><path fill-rule="evenodd" clip-rule="evenodd" d="M30.75.625h-12.5a.625.625 0 0 0-.625.625v7.5c0 .345.28.625.625.625h12.5c.345 0 .625-.28.625-.625v-7.5a.625.625 0 0 0-.625-.625ZM18.25 0C17.56 0 17 .56 17 1.25v7.5c0 .69.56 1.25 1.25 1.25h12.5c.69 0 1.25-.56 1.25-1.25v-7.5C32 .56 31.44 0 30.75 0h-12.5Z" fill="#000" fill-opacity=".04"/></svg>
